icons/file-shield-2-line.svg

<svg xmlns="http://www.w3.org/2000/svg" width="24" height="24" fill="none"><g clip-path="url(#a)"><g><path fill="#121212" d="M14 9V4H5V20H11.056C11.384 20.417 11.78 20.785 12.236 21.085L13.626 22H3.993C3.72981 22 3.47739 21.8955 3.2912 21.7095C3.105 21.5235 3.00027 21.2712 3 21.008V2.992C3 2.455 3.449 2 4.002 2H14.997L21 8V9H14ZM12 11H21V16.949C21 17.939 20.499 18.865 19.664 19.414L16.5 21.498L13.336 19.414C12.9266 19.1461 12.5902 18.7807 12.357 18.3506C12.1238 17.9205 12.0012 17.4392 12 16.95V11ZM14 16.949C14 17.265 14.162 17.563 14.436 17.744L16.5 19.104L18.564 17.744C18.6969 17.6581 18.8064 17.5404 18.8825 17.4016C18.9586 17.2628 18.999 17.1073 19 16.949V13H14V16.949Z"/></g></g><defs><clipPath id="a"><rect width="24" height="24" fill="white"/></clipPath></defs></svg>

<svg width="24" height="24" fill="none" xmlns="http://www.w3.org/2000/svg"><g clip-path="url(#a)"><path d="M14 9V4H5v16h6.056a4.99 4.99 0 0 0 1.18 1.085l1.39.915H3.993A.993.993 0 0 1 3 21.008V2.992C3 2.455 3.449 2 4.002 2h10.995L21 8v1h-7Zm-2 2h9v5.949c0 .99-.501 1.916-1.336 2.465L16.5 21.498l-3.164-2.084A2.953 2.953 0 0 1 12 16.95V11Zm2 5.949c0 .316.162.614.436.795l2.064 1.36 2.064-1.36a.954.954 0 0 0 .436-.795V13h-5v3.949Z" /></g><defs><clipPath id="a"><path fill="#fff" d="M0 0h24v24H0z"/></clipPath></defs></svg>
